svgs/light/pallet-box.svg

<svg xmlns="http://www.w3.org/2000/svg" viewBox="0 0 640 512"><!--! Font Awesome Pro 6.3.0 by @fontawesome - https://fontawesome.com License - https://fontawesome.com/license (Commercial License) Copyright 2023 Fonticons, Inc. --><path d="M192 288h256c35.35 0 64-28.65 64-64V64c0-35.35-28.65-64-64-64H192C156.7 0 128 28.65 128 64v160C128 259.3 156.7 288 192 288zM272 32h96v70.13l-40.84-20.44c-4.5-2.25-9.812-2.25-14.31 0L272 102.1V32zM160 64c0-17.64 14.36-32 32-32h48v96c0 5.531 2.875 10.69 7.594 13.62c4.656 2.812 10.59 3.156 15.56 .6875L320 113.9l56.84 28.44C379.1 143.4 381.6 144 384 144c2.938 0 5.844-.8125 8.406-2.375C397.1 138.7 400 133.5 400 128V32H448c17.64 0 32 14.36 32 32v160c0 17.64-14.36 32-32 32H192C174.4 256 160 241.6 160 224V64zM624 480h-64v-96h64c8.844 0 16-7.156 16-16S632.8 352 624 352h-608C7.156 352 0 359.2 0 368S7.156 384 16 384h64v96h-64C7.156 480 0 487.2 0 496S7.156 512 16 512h608c8.844 0 16-7.156 16-16S632.8 480 624 480zM304 480h-192v-96h192V480zM528 480h-192v-96h192V480z"/></svg>

<svg xmlns="http://www.w3.org/2000/svg" viewBox="0 0 640 512"><!-- Font Awesome Pro 6.0.0-alpha2 by @fontawesome - https://fontawesome.com License - https://fontawesome.com/license (Commercial License) --><path d="M192 288H448C483.346 288 512 259.346 512 224V64C512 28.652 483.346 0 448 0H192C156.654 0 128 28.652 128 64V224C128 259.346 156.654 288 192 288ZM272 32H368V102.125L327.156 81.687C322.656 79.437 317.344 79.437 312.844 81.687L272 102.125V32ZM160 64C160 46.355 174.355 32 192 32H240V128C240 133.531 242.875 138.688 247.594 141.625C252.25 144.437 258.188 144.781 263.156 142.312L320 113.875L376.844 142.313C379.094 143.438 381.562 144 384 144C386.938 144 389.844 143.188 392.406 141.625C397.125 138.688 400 133.531 400 128V32H448C465.645 32 480 46.355 480 64V224C480 241.645 465.645 256 448 256H192C174.355 256 160 241.645 160 224V64ZM624 480H560V384H624C632.844 384 640 376.844 640 368S632.844 352 624 352H16C7.156 352 0 359.156 0 368S7.156 384 16 384H80V480H16C7.156 480 0 487.156 0 496S7.156 512 16 512H624C632.844 512 640 504.844 640 496S632.844 480 624 480ZM304 480H112V384H304V480ZM528 480H336V384H528V480Z"/></svg>
